X: 4219
T: Blueberry Ball, The
R: waltz
M: 3/4
K: Gmajor
|:F>E|D2 G2 G2|G2 B2- B>A|(3GAG F2 G2|A2- A>B c2|d2 B2 d2|c2 A<G- G2|F6|(3FGF E2 ^D2|
D2 G2 G<G-|G2 B2 (3ABA|G2 F2 G<A-|A2 B2 c2|d2 B2 d2|c2 A2- A>F|G6-|G4:|
|:B>c|d2 B2 c2|d2 e2- e>d|c2 A2 B2|c2 d2- d>c|B2 G2 G<G-|G2 (3ABA G2|F6|E4 F<E|
D2 G2- G>F|G2 B2 A<F|G2 F2- F>G|A2 B2 c2|d2 B2 d2|c<A- A2 F2|G6-|G4:|

